X: 19771
T: Jenny's Wedding
R: reel
M: 4/4
K: Dmajor
D2 (3FED AD (3FED|Ad de fd ed|cA AB2<=c2d|ea ag ed ^cA|
D2 FA df ed|cA AB =cd eg|fd e=c d2 =cA|(3B=cd AG FD D2|
D2 (3FED AD (3FED|Ad de fd ed|cA AB2<=c2d|ea ag ed ^cA|
D2 FA df ed|cA AB =cd eg|fd ec d2 =cA|(3B=cd AG FD D2|
d2 fd Ad fd|^cA AB =cd e^c|d2 fd Ad fd|(3B=cd eg fd dA|
d2 fd Ad fd|(3B=cd ef g2 fg|af ge d2 ^cA|(3B=cd AG FD D2|
d2 fd ad fd|e^c AB =cd e^c|d2 fd ad fd|ea ag fd dA|
d2 fd ad fd|(3B=cd ef g2 fg|af ge d2 =cA|(3B=cd AG FD D2|

